www/assets/system-icons/logo-color.svg

<svg width="295" height="94" viewBox="0 0 295 94" xmlns="http://www.w3.org/2000/svg" fill='currentColor'><g clip-path="url(#clip0_9951_9907)"><path fill-rule="evenodd" clip-rule="evenodd" d="M207.961 69.0591C200.132 83.8898 184.613 93.983 166.804 93.983C141.096 93.983 120.257 72.9431 120.257 46.9915C120.257 21.0399 141.096 0 166.804 0C184.439 0 199.775 9.89295 207.674 24.4885L188.602 34.7821C184.335 26.9182 176.088 21.6757 166.804 21.6757C153.262 21.6757 141.932 32.8139 141.932 46.9915C141.932 61.1691 153.262 72.3074 166.804 72.3074C176.279 72.3074 184.726 66.8558 188.907 58.7133L207.961 69.0591ZM111.078 1.66335H89.7768V91.8668H111.078V1.66335ZM26.0822 91.8669C13.9511 91.8669 0.592136 85.318 0.592136 70.1128C0.592136 70.1128 47.1743 70.1128 54.5941 70.1215C62.4927 68.5453 61.6132 58.5826 54.5941 57.2067H26.8746C12.1223 57.2067 0.444092 44.6141 0.444092 29.6092C0.444092 15.1791 11.234 1.67206 26.8746 1.67206H57.285C69.8254 1.67206 78.7778 11.0599 78.7778 22.9645H26.8746C19.8991 23.9573 19.4549 34.6602 26.8746 35.8707H54.5157C69.6773 36.28 81.7735 48.3501 81.7735 63.6336C81.7735 77.7154 69.8254 91.8669 54.5853 91.8669H26.0822ZM215.99 91.8668V1.66335H237.535V37.8388H245.826L268.224 1.66335H294.716L264.192 47.3399L294.272 91.8668H267.771L245.103 56.9193H237.535V91.8668H215.99Z"/></g><defs><clipPath id="clip0_9951_9907"><rect width="295" height="94"/></clipPath></defs></svg>

<svg xmlns="http://www.w3.org/2000/svg" width="295" height="94" viewBox="0 0 295 94" fill='currentColor'><g clip-path="url(#a)"><path fill-rule="evenodd" d="M207.961 69.06c-7.829 14.83-23.348 24.923-41.157 24.923-25.708 0-46.547-21.04-46.547-46.991C120.257 21.04 141.096 0 166.804 0c17.635 0 32.971 9.893 40.87 24.489l-19.072 10.293c-4.267-7.864-12.514-13.106-21.798-13.106-13.542 0-24.872 11.138-24.872 25.316s11.33 25.315 24.872 25.315c9.475 0 17.922-5.451 22.103-13.594zM111.078 1.662H89.777v90.204h21.301zM26.082 91.867c-12.13 0-25.49-6.549-25.49-21.754 0 0 46.582 0 54.002.008 7.899-1.576 7.02-11.538 0-12.914h-27.72c-14.752 0-26.43-12.593-26.43-27.598 0-14.43 10.79-27.937 26.43-27.937h30.411c12.54 0 21.493 9.388 21.493 21.293H26.875c-6.976.992-7.42 11.695 0 12.906h27.64c15.162.409 27.258 12.48 27.258 27.763 0 14.081-11.948 28.233-27.188 28.233zm189.908 0V1.663h21.545V37.84h8.291l22.398-36.176h26.492L264.192 47.34l30.08 44.527h-26.501l-22.668-34.948h-7.568v34.948z" clip-rule="evenodd"/></g><defs><clipPath id="a"><path d="M0 0h295v94H0z"/></clipPath></defs></svg>
